X:280
T: Melodie zum Bergreihen von Joachimsthal
N: A0634
O: Europa, Mitteleuropa, Deutschland
N: Babsts Gsgb 1553 II No. 62.
R: Romanze, Ballade, Lied, religioeses Lied
M: 6/2
L: 1/4
K: D
D2 | D4A4=c2B2 | A4E4
=c4 | B4A2G4=F2 | E6
D2 | D4A4=c2B2 | A4E4
=c4 | B4A2G4=F2 | E6
E2 | E4E2E4=F2 | G4G2=FED4 | =C8
G4 | G4G2G4=F2 | E8z2
E2 | D4A4A2G2 | A4A4
=c4 | _B4A2G4E2 | D6

@@@ Tune index: 593
